public/avatar/shoe/65.svg

<svg xmlns:xlink="http://www.w3.org/1999/xlink" height="38.3" width="36.05" xmlns="http://www.w3.org/2000/svg"><use height="15.7" transform="translate(9.75 11.8)" width="22" xlink:href="#a"/><defs><g id="a" fill-rule="evenodd"><path d="M4-1.55q1 .55 2.45 3 1.5 2.55 1.5 3.9 0 3-3.8 4.6L-.3 11.8q-3.1 1-7.05.85-4.05-.15-5.7-2.6-1.35-1.9-.9-3.85 1.5-5.95 5.6-5.8 2.1.1 2.15.6 1.1-3.7 5.15-3.8l3.15.15L4-1.55" transform="translate(14.05 3.05)"/><path d="M1.15-2.3q2 0 4.15 3.35 2 3.3 1.75 5.35Q6.8 8.3.9 10.35q-5.7 1.95-8.65 1.45-6.55-1.15-4.9-6.3.9-2.85 2.5-3.9l2.25-.1q.55.65-.1 1.5l-.85 1.45q0 1.8 2.9-2Q-5.2.7-4.3-.4q1.6-1.9 5.45-1.9" fill="#18601e" transform="translate(14.05 3.05)"/><path d="m-8.75 4.1 1.85-.75-.65 1Q-8.15 5.4-7.8 6l1.35 1q-1.25.3-1.9-.45l-.4-2.45" transform="translate(14.05 3.05)"/><path d="M-9.75 11.45q-3.3-1.45-3.3-4.2 0-2.1 1.65-4.35Q-9.65.6-8.3 1.2l-1.35 1.45q-1.3 1.85-1.15 3.65.1 2.05 2.25 3.8l1.55 1 1.6.15q-.35.65-2.05.6l-2.3-.4" fill="#0d4917" transform="translate(14.05 3.05)"/><path d="M-4.65-.05q.35-.7 1.25-1.1l.85-.3Q1.6 1.5.9 1.5q-3.15 0-4.2.6l-4.4 3.35.2-1 1.55-2 1.3-2.5" fill="#0d4917" transform="translate(14.05 3.05)"/><path d="m-3.2-.55.65-1.65q3.7-.6 6.7 2.15 1.9 1.7 2.75 4.55.5 1.9-.55 3.2-.65.85-.65-.35l.05-2.3q-.35-2.4-6.4-3.4Q-3.3 1.2-3.2-.55" fill="#0d4917" transform="translate(14.05 3.05)"/><path d="M-7.45-2.5Q-4.8-1.1-5.9 1.9-7 4.95-10.6 3.45q-3.75-1.6-1.8-4.55 1.9-3 4.95-1.4" fill="#0e1d20" transform="translate(14.05 3.05)"/><path d="M-7.95-1.9Q-6.1-.6-7 1.45q-.9 2.15-3.15 1-2.65-1.3-1.1-3.45 1.5-2.15 3.3-.9" fill="#799aaa" transform="translate(14.05 3.05)"/><path d="M-10.3-1-9.1.85-7.15.7l-.55 1.05V1.5q-1.4.95-2.2.3-1.3-.95-1-1.95l.6-.85" fill="#586f7b" transform="translate(14.05 3.05)"/></g></defs></svg>

<?xml version="1.0" encoding="UTF-8" standalone="no"?>
<svg xmlns:xlink="http://www.w3.org/1999/xlink" height="38.3px" width="36.05px" xmlns="http://www.w3.org/2000/svg">
  <g transform="matrix(1.0, 0.0, 0.0, 1.0, 23.8, 14.85)">
    <use height="15.7" transform="matrix(1.0, 0.0, 0.0, 1.0, -14.05, -3.05)" width="22.0" xlink:href="#shape0"/>
  </g>
  <defs>
    <g id="shape0" transform="matrix(1.0, 0.0, 0.0, 1.0, 14.05, 3.05)">
      <path d="M4.0 -1.55 Q5.0 -1.0 6.45 1.45 7.95 4.0 7.95 5.35 7.95 8.35 4.15 9.95 L-0.3 11.8 Q-3.4 12.8 -7.35 12.65 -11.4 12.5 -13.05 10.05 -14.4 8.15 -13.95 6.2 -12.45 0.25 -8.35 0.4 -6.25 0.5 -6.2 1.0 -5.1 -2.7 -1.05 -2.8 L2.1 -2.65 4.0 -1.55" fill="#000000" fill-rule="evenodd" stroke="none"/>
      <path d="M1.15 -2.3 Q3.15 -2.3 5.3 1.05 7.3 4.35 7.05 6.4 6.8 8.3 0.9 10.35 -4.8 12.3 -7.75 11.8 -14.3 10.65 -12.65 5.5 -11.75 2.65 -10.15 1.6 L-7.9 1.5 Q-7.35 2.15 -8.0 3.0 L-8.85 4.45 Q-8.85 6.25 -5.95 2.45 -5.2 0.7 -4.3 -0.4 -2.7 -2.3 1.15 -2.3" fill="#18601e" fill-rule="evenodd" stroke="none"/>
      <path d="M-8.75 4.1 L-6.9 3.35 -7.55 4.35 Q-8.15 5.4 -7.8 6.0 L-6.45 7.0 Q-7.7 7.3 -8.35 6.55 L-8.75 4.1" fill="#000000" fill-rule="evenodd" stroke="none"/>
      <path d="M-9.75 11.45 Q-13.05 10.0 -13.05 7.25 -13.05 5.15 -11.4 2.9 -9.65 0.6 -8.3 1.2 L-9.65 2.65 Q-10.95 4.5 -10.8 6.3 -10.7 8.35 -8.55 10.1 L-7.0 11.1 -5.4 11.25 Q-5.75 11.9 -7.45 11.85 L-9.75 11.45" fill="#0d4917" fill-rule="evenodd" stroke="none"/>
      <path d="M-4.65 -0.05 Q-4.3 -0.75 -3.4 -1.15 L-2.55 -1.45 Q1.6 1.5 0.9 1.5 -2.25 1.5 -3.3 2.1 L-7.7 5.45 -7.5 4.45 -5.95 2.45 -4.65 -0.05" fill="#0d4917" fill-rule="evenodd" stroke="none"/>
      <path d="M-3.2 -0.55 L-2.55 -2.2 Q1.15 -2.8 4.15 -0.05 6.05 1.65 6.9 4.5 7.4 6.4 6.35 7.7 5.7 8.55 5.7 7.35 L5.75 5.05 Q5.4 2.65 -0.65 1.65 -3.3 1.2 -3.2 -0.55" fill="#0d4917" fill-rule="evenodd" stroke="none"/>
      <path d="M-7.45 -2.5 Q-4.8 -1.1 -5.9 1.9 -7.0 4.95 -10.6 3.45 -14.35 1.85 -12.4 -1.1 -10.5 -4.1 -7.45 -2.5" fill="#0e1d20" fill-rule="evenodd" stroke="none"/>
      <path d="M-7.95 -1.9 Q-6.1 -0.6 -7.0 1.45 -7.9 3.6 -10.15 2.45 -12.8 1.15 -11.25 -1.0 -9.75 -3.15 -7.95 -1.9" fill="#799aaa" fill-rule="evenodd" stroke="none"/>
      <path d="M-10.3 -1.0 L-9.1 0.85 -7.15 0.7 -7.7 1.75 -7.7 1.5 Q-9.1 2.45 -9.9 1.8 -11.2 0.85 -10.9 -0.15 L-10.3 -1.0" fill="#586f7b" fill-rule="evenodd" stroke="none"/>
    </g>
  </defs>
</svg>
